icons/plexis/48/klickety.svg

<svg viewBox="0 0 48 48" xmlns="http://www.w3.org/2000/svg" xmlns:xlink="http://www.w3.org/1999/xlink">
  <linearGradient id="a" gradientTransform="matrix(0 -1 1 0 -.0000015 47.999998)" gradientUnits="userSpaceOnUse" x1="1" x2="47">
    <stop offset="0" stop-color="#545454"/>
    <stop offset="1" stop-color="#5e5e5e"/>
  </linearGradient>
  <path d="m47 24c0 22.703-.297 23-23 23-22.703 0-23-.297-23-23 0-22.703.297-23 23-23 22.703 0 23 .297 23 23z" fill="url(#a)"/>
  <g opacity=".1" transform="translate(1.005 1)">
    <path d="m13.1 12h7.797c.609 0 1.102.559 1.102 1.246v7.512c0 .688-.492 1.242-1.102 1.242h-7.797c-.605 0-1.105-.555-1.105-1.242v-7.512c0-.688.496-1.246 1.105-1.246m0 0"/>
    <path d="m27.1 12h7.797c.609 0 1.102.559 1.102 1.246v7.512c0 .688-.492 1.242-1.102 1.242h-7.797c-.605 0-1.105-.555-1.105-1.242v-7.512c0-.688.496-1.246 1.105-1.246m0 0"/>
    <path d="m13.1 26h7.797c.609 0 1.102.559 1.102 1.246v7.512c0 .684-.492 1.242-1.102 1.242h-7.797c-.605 0-1.105-.559-1.105-1.242v-7.512c0-.688.496-1.246 1.105-1.246m0 0"/>
    <path d="m27.1 26h7.797c.609 0 1.102.559 1.102 1.246v7.512c0 .684-.492 1.242-1.102 1.242h-7.797c-.605 0-1.105-.559-1.105-1.242v-7.512c0-.688.496-1.246 1.105-1.246m0 0"/>
  </g>
  <g transform="translate(.005)">
    <path d="m13.1 12h7.797c.609 0 1.102.559 1.102 1.246v7.512c0 .688-.492 1.242-1.102 1.242h-7.797c-.605 0-1.105-.555-1.105-1.242v-7.512c0-.688.496-1.246 1.105-1.246m0 0" fill="#e67c58"/>
    <path d="m27.1 12h7.797c.609 0 1.102.559 1.102 1.246v7.512c0 .688-.492 1.242-1.102 1.242h-7.797c-.605 0-1.105-.555-1.105-1.242v-7.512c0-.688.496-1.246 1.105-1.246m0 0" fill="#77aded"/>
    <path d="m13.1 26h7.797c.609 0 1.102.559 1.102 1.246v7.512c0 .684-.492 1.242-1.102 1.242h-7.797c-.605 0-1.105-.559-1.105-1.242v-7.512c0-.688.496-1.246 1.105-1.246m0 0" fill="#ee9c44"/>
    <path d="m27.1 26h7.797c.609 0 1.102.559 1.102 1.246v7.512c0 .684-.492 1.242-1.102 1.242h-7.797c-.605 0-1.105-.559-1.105-1.242v-7.512c0-.688.496-1.246 1.105-1.246m0 0" fill="#a1eb35"/>
  </g>
</svg>

<svg xmlns="http://www.w3.org/2000/svg" viewBox="0 0 48 48">
 <defs>
  <linearGradient id="linearGradient3764" x1="1" x2="47" gradientUnits="userSpaceOnUse" gradientTransform="matrix(0,-1,1,0,-1.5e-6,47.999998)">
   <stop style="stop-color:#545454;stop-opacity:1"/>
   <stop offset="1" style="stop-color:#5e5e5e;stop-opacity:1"/>
  </linearGradient>
 </defs>
 <g>
  
  
  
 </g>
 <g>
  <path d="m 47,24 C 47,46.703 46.703,47 24,47 1.297,47 1,46.703 1,24 1,1.297 1.297,1 24,1 46.703,1 47,1.297 47,24 z" style="fill:url(#linearGradient3764);fill-opacity:1"/>
 </g>
 <g>
  
 </g>
 <g transform="translate(0.005,0)">
  <g>
   <g transform="translate(1,1)">
    <g style="opacity:0.1">
     <!-- color: #eeeeee -->
     <g>
      <path d="m 13.1,12 7.797,0 c 0.609,0 1.102,0.559 1.102,1.246 l 0,7.512 C 21.999,21.446 21.507,22 20.897,22 L 13.1,22 c -0.605,0 -1.105,-0.555 -1.105,-1.242 l 0,-7.512 C 11.995,12.558 12.491,12 13.1,12 m 0,0" style="fill:#000;fill-opacity:1;stroke:none;fill-rule:nonzero"/>
      <path d="m 27.1,12 7.797,0 c 0.609,0 1.102,0.559 1.102,1.246 l 0,7.512 C 35.999,21.446 35.507,22 34.897,22 L 27.1,22 c -0.605,0 -1.105,-0.555 -1.105,-1.242 l 0,-7.512 C 25.995,12.558 26.491,12 27.1,12 m 0,0" style="fill:#000;fill-opacity:1;stroke:none;fill-rule:nonzero"/>
      <path d="m 13.1,26 7.797,0 c 0.609,0 1.102,0.559 1.102,1.246 l 0,7.512 C 21.999,35.442 21.507,36 20.897,36 L 13.1,36 c -0.605,0 -1.105,-0.559 -1.105,-1.242 l 0,-7.512 C 11.995,26.558 12.491,26 13.1,26 m 0,0" style="fill:#000;fill-opacity:1;stroke:none;fill-rule:nonzero"/>
      <path d="m 27.1,26 7.797,0 c 0.609,0 1.102,0.559 1.102,1.246 l 0,7.512 C 35.999,35.442 35.507,36 34.897,36 L 27.1,36 c -0.605,0 -1.105,-0.559 -1.105,-1.242 l 0,-7.512 C 25.995,26.558 26.491,26 27.1,26 m 0,0" style="fill:#000;fill-opacity:1;stroke:none;fill-rule:nonzero"/>
     </g>
    </g>
   </g>
  </g>
 </g>
 <g transform="translate(0.005,0)">
  <g>
   <!-- color: #eeeeee -->
   <g>
    <path d="m 13.1,12 7.797,0 c 0.609,0 1.102,0.559 1.102,1.246 l 0,7.512 C 21.999,21.446 21.507,22 20.897,22 L 13.1,22 c -0.605,0 -1.105,-0.555 -1.105,-1.242 l 0,-7.512 C 11.995,12.558 12.491,12 13.1,12 m 0,0" style="fill:#e67c58;fill-opacity:1;stroke:none;fill-rule:nonzero"/>
    <path d="m 27.1,12 7.797,0 c 0.609,0 1.102,0.559 1.102,1.246 l 0,7.512 C 35.999,21.446 35.507,22 34.897,22 L 27.1,22 c -0.605,0 -1.105,-0.555 -1.105,-1.242 l 0,-7.512 C 25.995,12.558 26.491,12 27.1,12 m 0,0" style="fill:#77aded;fill-opacity:1;stroke:none;fill-rule:nonzero"/>
    <path d="m 13.1,26 7.797,0 c 0.609,0 1.102,0.559 1.102,1.246 l 0,7.512 C 21.999,35.442 21.507,36 20.897,36 L 13.1,36 c -0.605,0 -1.105,-0.559 -1.105,-1.242 l 0,-7.512 C 11.995,26.558 12.491,26 13.1,26 m 0,0" style="fill:#ee9c44;fill-opacity:1;stroke:none;fill-rule:nonzero"/>
    <path d="m 27.1,26 7.797,0 c 0.609,0 1.102,0.559 1.102,1.246 l 0,7.512 C 35.999,35.442 35.507,36 34.897,36 L 27.1,36 c -0.605,0 -1.105,-0.559 -1.105,-1.242 l 0,-7.512 C 25.995,26.558 26.491,26 27.1,26 m 0,0" style="fill:#a1eb35;fill-opacity:1;stroke:none;fill-rule:nonzero"/>
   </g>
  </g>
 </g>
</svg>
